fs/checkmark_lock_20_regular.svg

<svg viewBox="0 0 20 20" fill="none" xmlns="http://www.w3.org/2000/svg" height="1em" width="1em">
  <path d="M10 2C14.4183 2 18 5.58172 18 10C18 10.1109 17.9977 10.2212 17.9933 10.331C17.7323 9.942 17.3828 9.61741 16.9735 9.38618C16.6626 5.80765 13.6592 3 10 3C6.13401 3 3 6.13401 3 10C3 13.866 6.13401 17 10 17C10.3395 17 10.6734 16.9758 11 16.9291V17.9381C10.6724 17.979 10.3387 18 10 18C5.58172 18 2 14.4183 2 10C2 5.58172 5.58172 2 10 2ZM16.9707 10.6446C17.2993 11.001 17.5 11.4771 17.5 12V13H18C18.5523 13 19 13.4477 19 14V18C19 18.5523 18.5523 19 18 19H13C12.4477 19 12 18.5523 12 18V14C12 13.4477 12.4477 13 13 13H13.5V12C13.5 10.8954 14.3954 10 15.5 10C16.0816 10 16.6053 10.2483 16.9707 10.6446ZM14.5 13H16.5V12C16.5 11.4477 16.0523 11 15.5 11C14.9477 11 14.5 11.4477 14.5 12V13ZM14.8454 16.3663C14.9738 16.5952 15.2188 16.75 15.5 16.75C15.9142 16.75 16.25 16.4142 16.25 16C16.25 15.742 16.1197 15.5144 15.9213 15.3795C15.8013 15.2978 15.6562 15.25 15.5 15.25C15.0858 15.25 14.75 15.5858 14.75 16C14.75 16.133 14.7846 16.2579 14.8454 16.3663ZM13.3584 7.64645C13.532 7.82001 13.5513 8.08944 13.4163 8.28431L13.3584 8.35355L9.35355 12.3584C9.17999 12.532 8.91056 12.5513 8.71569 12.4163L8.64645 12.3584L6.64645 10.3584C6.45118 10.1632 6.45118 9.84658 6.64645 9.65131C6.82001 9.47775 7.08944 9.45846 7.28431 9.59346L7.35355 9.65131L9 11.298L12.6513 7.64645C12.8466 7.45118 13.1632 7.45118 13.3584 7.64645Z" fill="#212121"/>
</svg>

<svg viewBox="0 0 20 20" fill="none" xmlns="http://www.w3.org/2000/svg" height="1em" width="1em">
  <path d="M10 2a8 8 0 0 1 7.993 8.331 3.016 3.016 0 0 0-1.02-.945A7 7 0 1 0 11 16.93v1.01A8 8 0 1 1 10 2Zm6.97 8.645c.33.356.53.832.53 1.355v1h.5a1 1 0 0 1 1 1v4a1 1 0 0 1-1 1h-5a1 1 0 0 1-1-1v-4a1 1 0 0 1 1-1h.5v-1a2 2 0 0 1 3.47-1.355ZM14.5 13h2v-1a1 1 0 1 0-2 0v1Zm.345 3.366a.75.75 0 1 0 1.31-.732.75.75 0 0 0-1.31.732Zm-1.487-8.72a.5.5 0 0 1 .058.638l-.058.07-4.004 4.004a.5.5 0 0 1-.638.058l-.07-.058-2-2a.5.5 0 0 1 .638-.765l.07.058L9 11.298l3.651-3.652a.5.5 0 0 1 .707 0Z" fill="#212121"/>
</svg>
